X: 45
T: DURHAM
%R: hornpipe, reel
B: Jean White "100 Popular Hornpipes, Reels, Jigs and Country Dances", Boston 1880 p.20
F: http://www.loc.gov/resource/sm1880.09124.0#seq-1
Z: 2014 John Chambers <jc:trillian.mit.edu>
M: C|
L: 1/8
K: E
% - - - - - - - - - - - - - - - - - - - - - - - - - - - - -
ga |\
bgaf egfe | defd BcBA | GBeB cAfe |
defd B2ga | bgaf egfe | defd BcBA | GBdB cafd | e2e2 e2 :|
|: de |\
fBTB2 fBaf | gBTB2 gBbg | fagf edc^B | [c2^E2][c2E2] [c2E2]=BA |
GBeB cAfe | dBge fcaf | gbeg fadf | e2e2 e2 H:|
% - - - - - - - - - - - - - - - - - - - - - - - - - - - - -

%%sep 1 1 500
%%sep 1 1 500
